icon-themes/sifr_svg/desktop/res/info_16.svg

<svg viewBox="0 0 16 16" xmlns="http://www.w3.org/2000/svg"><path d="m8 1a7 7 0 0 0 -7 7 7 7 0 0 0 7 7 7 7 0 0 0 7-7 7 7 0 0 0 -7-7zm-1 2h2v2h-2zm0 3h2v7h-2z" fill="#555753"/></svg>

<svg xmlns="http://www.w3.org/2000/svg" viewBox="0 0 16 16">
  <path
     style="fill:#555753"
     d="M 8 1 A 7 7 0 0 0 1 8 A 7 7 0 0 0 8 15 A 7 7 0 0 0 15 8 A 7 7 0 0 0 8 1 z M 7 3 L 9 3 L 9 5 L 7 5 L 7 3 z M 7 6 L 9 6 L 9 13 L 7 13 L 7 6 z "
     />
</svg>
